X:1
T:Fado do Povo
T:Fado do Povo
T:in "Colecção dos melhores Fados para Bandolim"
T:Edição: Casa Suéca - Lisboa (1895)
%%score 1 { 2 | 3 }
L:1/8
Q:1/4=60
M:2/4
K:C
V:1 treble nm="Cavaquinho"
V:2 treble nm="Piano"
V:3 bass 
V:1
"^Allegretto" z/ G/E/G/ | c/G/E- E/G/E/G/ | B/G/F- F/G/F/G/ | B/G/F- F/G/F/G/ | c/G/E- E/G/E/G/ | %5
 c/B/E- E/G/E/G/ | B/G/F- F/G/F/G/ | B/G/F- F/G/F/D/ | .[CE] z z/ G/^F/G/ || %9
 !>!F/G/!>!E/G/ !>!D/G/!>!C/G/ | .[B,G] z z/ (g/^f/g/) | !>!f/g/!>!e/g/ !>!d/g/!>!B/g/ | %12
 .[Ec] z z/ g/^f/g/ | !>!f/g/!>!f/g/ !>!d/g/!>!c/g/ | !arpeggio![Bg] z z/ G/^F/G/ | %15
 F/G/E/G/ D/G/B,/G/ | !arpeggio![G,Ec] z!D.C.! |] %17
V:2
 z (e | c')(c'/g/ e)(e | b)(b/g/ f)!8va(!(f' | b')(b'/g'/ f')(f' | c'')(c''/g'/ e')!8va)!(e | %5
 c')(c'/g/ e)(e | b)(b/g/ f)(f | b)(b/g/ f)([fgb] | [egc']) z z3/2 G,/ ||[K:bass] F,E, D,C, | %10
[K:treble] B,(B/4c/4d/4e/4 f/) z/ z/ (G/ | (f/)G/)(e/G/) (d/G/)(B/G/) | %12
 c(c'/4d'/4e'/4f'/4 g'/) z/ z/ G/ |{/G} !^!F{/G}!^!E{/G} !^!D{/G}!^!C | %14
{/G} !^!B,/(g/^f/g/) z3/2 ([Gg]/ | (f/)[Gg]/)(e/[Gg]/) (d/[Gg]/)(B/[Gg]/) | !arpeggio![cegc'] z |] %17
V:3
 z2 |[K:treble] C/G/E/G/ C/G/E/G/ | D/G/F/G/ D/G/F/G/ | D/G/F/G/ D/G/F/G/ | C/G/E/G/ C/G/E/G/ | %5
 C/G/E/G/ C/G/E/G/ | D/G/F/G/ D/G/F/G/ | D/G/F/G/ D/G/F/G/ | C/G/E/G/ C/ z/ z || %9
[K:bass] (E,/G,/E,/G,/) C,/G,/E,/G,/ | (D,/F,/G,/B,/) (G,/B,/D/F/) | %11
 (D,/F,/G,/B,/) (D,/F,/G,/B,/) | (C,/E,/C,/E,/) (C,/E,/G,/C/) | %13
 ([C,C]/G,/E,/G,/) ([C,C]/G,/E,/G,/) | ([D,D]/B,/D/F/) (G,/B,/D/F/) | %15
 (D,/F,/G,/B,/) (D,/F,/G,/B,/) | !arpeggio![C,E,G,C] z |] %17

